X:1
T:Quam pulchra es
T:Noel Bauldeweyn (c.1480-1530)
T:Transcribed by David Maulsby Gehrenbeck, 1970 slightly re-edited by Jay Lane, 2011
T:Quam pulchra es
T:Unknown
T:Unknown
T:Unknown
T:Unknown
T:Unknown
T:Unknown
T:Unknown
T:Unknown
C:Noel Bauldeweyn
C:(c.1480-1530)
Z:Transcribed by David Maulsby Gehrenbeck, 1970
Z:slightly re-edited by Jay Lane, 2011
Z:Unknown
%%score [ 1 2 3 4 ]
L:1/8
M:2/1
K:Bb
V:1 treble nm="Soprano" snm="S."
V:2 treble nm="Alto" snm="A."
V:3 treble transpose=-12 nm="Tenor"
V:4 bass nm="Bassus"
V:1
 B6 c2 d4 e4 | d6 cB A2 G2 c4- | c2 B2 B6 AG A4 | B16 | z16 | z16 | z8 B8 | G6 A2 B4 c4- | %8
w: Quam _ _ _|pul- * * * * *|* * chra _ _ _|es|||et|quam _ _ de-|
 c2 B2 B8 A4 | B8 B8 | G6 A2 B4 c4- | c2 B2 B8 A4 | B16 | z16 | z16 | z16 | z16 | z16 | z8 e8 | %19
w: * * co- *|ra, et|quam _ _ de-|* * co- *|ra,||||||as-|
 d6 d2 c4 B4 | c8 e8 | d16 | z16 | z16 | z4 d4 d6 d2 | c4 B4 c4 e4- | e2 d2 d4 c2 B2 c4 | d8 z8 | %28
w: si- mi- la- ta|est pal-|mae,|||et u- be-|ra _ tu- *|* a bo- * * *|tris.|
 B16 | e12 e4 | d8 d8 | c4 B8 c4- | c2 B2 A2 G2 A4 B4- | B2 A2 F4 G8 | F8 z8 | z16 | F8 F4 G4- | %37
w: Ca-|put tu-|um ut|Car- * me-|||lus,||col- lum tu-|
 G2 F2 F8 =E4 | F8 z8 | z8 z4 c4 | d8 c8 | A4 d8 c4- | c2 B2 B8 A4 | B8 z8 | z16 | z8 f8 | B8 c8 | %47
w: |um|si-|cut tur-|ris e- bur-|* * * ne-|a,||si-|cut tur-|
 d8 e8 | d4 c2 B2 A2 G2 c4- | c2 B2 B6 AG A4 | B16- | B16- | B16 || z8 F6 G2 | A2 B2 c6 B2 B4- | %55
w: ris e-|bur- * * * * *|* * * * * ne-|a.|_||Ve- *||
 B4 A4 G8 | F8 z8 | A8 B8 | c8 A4 d4 | c4 B4 c8 | d8 z8 | z16 | z16 | z16 | z4 c4 d4 B4 | %65
w: |ni,|di- le-|cte mi, e-|gre- di- a-|mur;||||si flo- res|
 c4 d4 B4 c4 | A4 B6 A2 G2 F2 | E4 F8 =E4 | F8 c8 | A4 B4 G8 | F8 z8 | z16 | z8 A8- | A4 F4 G4 A4 | %74
w: fru- * * ctus|par- tu- * * *|* * ri-|unt, si|flo- ru- e-|runt||ma-|* la pu- *|
 B4 c8 B4 | G4 A4 B8- | B8 z8 | z16 | z16 | z16 | z8 B8 | A12 G2 F2 | G8 F4 B4- | %83
w: |* ni- ca;|_||||i-|bi _ _|_ da- *|
 B4 A2 G2 A2 G2 G4- | G2 F2 F6 =ED F2 E2 | F16 | z16 | z16 | z8 d8- | d4 B4 e6 d2 | c4 B8 A4 | %91
w: * * * * * bo|_ _ ti- * * * *|bi|||u-|* * be- *|ra _ me-|
 B8 e8 | d12 c2 B2 | A16- | A16- | A8 B8- | B16 |] %97
w: a. A-||||* men.|_|
V:2
 z8 B,6 C2 | D4 E4 C8 | D8 C8 | B,8 z8 | z16 | z16 | F8 D8 | E16 | D6 E2 F2 G2 F4- | F2 E2 E8 D4 | %10
w: Quam _|_ _ pul-|* chra|es|||et quam|de-|co- * * * *||
 E8 z4 E4 | D4 E4 F8 | D8 z4 B,4 | D4 E4 F4 G4- | G2 F2 E2 D2 C4 F4- | F4 =E2 D2 E6 E2 | F16- | %17
w: ra, et|quam de- co-|ra, cha-|ris- si- ma, in|_ _ _ _ _ de-|* * * li- ci-|is!|
 F16 | z8 C8 | F6 F2 F4 D4 | E8 C8 | B,8 z8 | z16 | z8 z4 G4 | F6 F2 G4 B4 | A4 G4 F4 G4- | %26
w: _|as-|si- mi- la- ta|est pal-|mae,||et|u- be- ra _|tu- * a bo-|
 G2 F2 D2 E2 F2 G2 E4 | D8 z8 | E16 | E8 C8 | D4 B,4 B8 | A4 G6 F2 G4 | F6 E2 C4 G4- | %33
w: |tris.|Ca-|put tu-|um _ ut|Car- me- * *||
 G2 F2 F8 E4 | D8 C4 B,4 | D12 C2 B,2 | A,8 A,4 B,4- | B,2 A,2 F,4 G,8 | F,4 F8 G4- | %39
w: |* * lus,|col- * *|* lum tu-||um, col- lum|
 G2 F2 E2 D2 E4 C4 | F12 E4 | F8 D4 E4- | E2 D2 B,4 C4 D4- | D2 C2 B,2 A,2 G,8 | F,8 G,4 B,4- | %45
w: _ _ _ _ tu- um|si- cut|tur- ris e-|* * * * bur-|* * * * ne-|a, e- bur-|
 B,4 A,4 B,6 A,G, | G8 z4 F4 | F4 F4 E4 C4 | D4 E4 F8 | G8 F8 | F12 D4 | G12 F2 E2 | F16 || %53
w: * ne- a, _ _|_ si-|cut tur- ris e-|bur- ne- a,|_ e-|bur- *|* ne- *|a.|
 B,6 C2 D2 E2 F4- | F2 E2 E8 D4 | C8 B,8 | D8 E8 | F8 D4 G4 | F4 E4 F8- | F4 G4 E4 F4- | %60
w: Ve- * * * *||* ni,|di- le-|cte mi, e-|gre- di- a-|* * mur in|
 F2 E2 D4 C8 | B,8 z8 | z16 | z16 | z4 F8 G4 | E4 F4 G4 E4 | F4 G6 F2 E2 D2 | C4 A,4 G,8 | %68
w: _ _ _ a-|grum;|||si _|flo- res fru- ctus|par- tu- * * *|* * ri-|
 F,12 C4 | D4 B,4 E8 | D8 z8 | z16 | z8 F8- | F4 D4 E4 C4 | B,4 A,2 G,2 F,4 B,4 | C8 z8 | %76
w: unt, si|flo- ru- e-|runt||ma-|* la pu- *|* * * * ni-|ca;|
 D12 C2 B,2 | C8 B,2 C2 D2 E2 | F4 G6 F2 F4- | F4 =E4 F8 | z8 x8 | z16 | B,12 A,2 G,2 | %83
w: i- * *|bi da- * * *|* bo _ ti-|* * bi|||u- * *|
 F,4 F8 E4- | E4 D4 C6 B,2 | A,4 B,4 C4 D4- | D4 B,4 E6 D2 | C4 B,8 A,4 | B,16 | z4 B4 G4 _A4 | %90
w: * * be-|* ra me- *|* a, u- be-|* ra me- *||a,|u- * be-|
 G4 F4 G4 F4 | D8 G8- | G4 F4 F8- | F16- | F8 C8- | C8 F8- | F16 |] %97
w: ra _ me- a.|A- *|* * men,|_|* a-|* men.|_|
V:3
 z16 | z16 | z16 | B6 c2 d4 e4 | d4 c2 B2 A2 G2 c4- | c2 B2 B6 AG A4 | B8 z8 | B8 G4 A4 | B8 c8 | %9
w: |||Quam _ _ _|pul- * * * * *|* * chra _ _ _|es|et quam de-|co- *|
 B16 | z4 B4 G4 A4 | B8 c8 | B16 | z16 | z16 | z8 B8 | c4 d8 c2 B2 | A6 B2 c2 d2 c4- | %18
w: ra,|et quam de-|co- *|ra,|||Sta-|tu- * * *||
 c2 B2 B8 A4 | B8 z8 | z16 | z4 d4 d6 d2 | c4 B4 c4 e4- | e2 d2 d4 c2 B2 c4 | d8 z8 | z16 | z16 | %27
w: * ra tu- *|a||et u- be-|ra _ tu- *|* a bo- * * *|tris.|||
 F16 | G12 F4 | G8 A8 | B6 c2 d2 e2 f4- | f4 d4 e8 | c8 z8 | z8 c8 | A12 B4- | B2 A2 F4 G8 | %36
w: Ca-|put _|tu- um|ut _ _ _ _|_ Car- me-|lus,|col-|lum tu-|* * * um|
 F12 E4 | F8 c8 | A4 d8 c4- | c2 B2 B8 A4 | B8 z8 | z16 | z16 | z16 | f8 B8 | c8 d8 | %46
w: si- cut|tur- ris|e- bur- *|* * * ne-|a,||||si- cut|tur- ris|
 e6 d2 c2 B2 c4- | c2 B2 B8 A4 | B8 z4 c4 | c4 G4 c8 | d8 d4 B4 | B16- | B16 || z16 | z16 | z16 | %56
w: e- * * * bur-|* * * ne-|a, si-|cut tur- ris|e- bur- ne-|a.|_||||
 z16 | z16 | z16 | z16 | B8 F8 | G6 A2 B2 c2 d4 | c6 B2 G2 A2 B2 c2 | d4 c6 B2 B4- | B2 G2 A4 B8 | %65
w: ||||vi- de-|a- * * * *|||* * * mus|
 z16 | z16 | z16 | z16 | z8 c8 | A4 B4 G8 | F4 B8 A4 | B4 c4 d4 d4 | d8 z8 | z4 f8 d4 | e4 c4 B8- | %76
w: ||||si|flo- ru- e-|runt ma- la|pu- * * ni-|ca,|ma- la|pu- ni- ca;|
 B8 z8 | z16 | z16 | B8 A8- | A4 G2 F2 G8 | F4 f8 d4 | e8 d8 | d12 c4 | B4 A4 G8 | F8 z8 | z16 | %87
w: _|||i- bi|_ _ _ _|da- * bo|ti- bi|u- *|be- ra me-|a,||
 z16 | f12 d4 | g12 f4 | e4 d4 c8 | B16- | B16 | c16- | c16- | c8 B8- | B16 |] %97
w: |u- *|be- ra|me- * *|a.|_|A-||* men.|_|
V:4
 z16 | z16 | z16 | z8 B,,6 C,2 | D,4 E,4 C,8 | D,8 C,8 | B,,16 | E,12 C,4 | G,8 F,8 | B,,16 | %10
w: |||Quam _|_ _ pul-|* chra|es|et quam|de- co-|ra,|
 E,12 C,4 | G,8 F,8 | B,,4 B,,4 D,4 E,4 | F,4 G,4 A,4 B,4 | C6 B,2 A,2 G,2 F,4 | A,6 B,2 G,8 | %16
w: et quam|de- co-|ra, cha- ris- si-|ma _ _ in|de- * * * *|li- * ci-|
 F,16 | F,8 F,8 | E,4 D,4 C,8 | B,,8 z8 | z8 C,8 | G,6 G,2 G,4 F,4 | E,8 _A,4 G,4- | %23
w: is!|Sta- tu-|ra _ tu-|a,|et|u- be- ra _|tu- a bo-|
 G,2 F,2 D,2 E,2 F,2 G,2 E,4 | D,8 z8 | z16 | z16 | B,,16 | E,12 D,4 | C,16 | %30
w: |tris.|||Ca-|put _|tu-|
 B,,8 B,,2 C,2 D,2 E,2 | F,4 G,4 E,8 | F,12 E,4 | F,8 C,8 | D,6 E,2 F,4 G,4- | G,2 F,2 F,8 E,4 | %36
w: um ut _ _ _|_ Car- me-|lus, _|col- lum|tu- * * *||
 F,8 z8 | z4 F,4 C,8 | D,8 D,4 E,4- | E,2 D,2 C,2 B,,2 C,4 C,4 | B,,8 z8 | z16 | z8 F,8 | %43
w: um|si- cut|tur- ris e-|* * * * bur- ne-|a,||si-|
 B,,8 C,8 | D,6 F,2 E,4 D,4 | C,8 B,,8 | z8 F,8- | F,4 D,4 C,8 | G,8 F,8 | E,8 F,8- | F,4 D,4 D,8 | %51
w: cut tur-|ris e- bur- *|ne- a,|si-|* * cut|tur- ris|_ e-|* * bur-|
 E,12 D,2 C,2 | B,,16 || z16 | z16 | z16 | z16 | z16 | z16 | z16 | z16 | E,8 B,,8 | %62
w: * ne- *|a.|||||||||vi- de-|
 C,6 D,2 E,2 F,2 G,4 | F,6 E,2 C,2 D,2 E,2 F,2 | G,2 E,2 F,4 B,,8 | z16 | z16 | z16 | z16 | %69
w: a- * * * *||* * * mus|||||
 z8 C,8 | D,4 B,,4 E,8 | D,4 G,8 F,4 | G,4 E,4 D,8- | D,8 x8 | z8 F,4 G,4 | E,4 F,4 B,,8 | %76
w: si|flo- ru- e-|runt ma- la|pu- ni- ca,|_|ma- la|pu- ni- ca;|
 B,12 A,2 G,2 | A,4 F,4 G,4 B,4- | B,2 A,2 G,2 F,2 E,4 F,4 | G,8 F,8 | z16 | F,12 G,4 | %82
w: i- * *|* bi da- *|* * * * * bo|ti- bi,||i- *|
 E,6 D,2 B,,8 | B,,2 C,2 D,2 E,2 F,4 C,4 | E,4 F,4 C,8 | D,4 B,,4 F,8 | G,12 F,4 | E,4 D,4 C,8 | %88
w: bi _ _|da- * * * * *|* * bo|ti- * bi|u- *|be- ra me-|
 B,,16 | z4 E,8 F,4 | C,4 D,4 E,4 F,4 | G,6 F,2 E,4 D,2 C,2 | B,,16 | F,16- | %94
w: a,|u- *|be- * * ra|me- * * * *|a.|A-|
"^Originally printed in Motetti de la corona vol. 4 (Petrucci, 1519).Transcribed by David Maulsby Geherenbeck in Motetti de la corona:a study of Ottaviano Petrucci's four last known motet prints, with 44 transcriptions.(PhD dissertation, Union Theological Seminary, 1970).Transposed down a step and lightly re-edited by Jay Lane, 2011.Text is from the Song of Songs, chapter 7, verses 6, 7, 5a, 4a, 11a, and 12b.This is the motet on which Nicholas Gombert's Missa Quam pulchra es is based." F,16- | %95
w: |
 F,8 B,,8- | B,,16 |] %97
w: * men.|_|

